svgs/regular/car-side.svg

<svg xmlns="http://www.w3.org/2000/svg" viewBox="0 0 640 512"><!-- Font Awesome Pro 6.0.0-alpha2 by @fontawesome - https://fontawesome.com License - https://fontawesome.com/license (Commercial License) --><path d="M520 224L411.301 88.062C399.141 72.854 380.725 64 361.25 64H155.375C129.125 64 105.625 79.875 95.875 104.25L48 226.25C20.5 233.375 0 258.25 0 288V400C0 417.674 14.328 432 32 432H65.613C73.266 477.363 112.461 512 160 512S246.734 477.363 254.387 432H385.613C393.266 477.363 432.461 512 480 512S566.734 477.363 574.387 432H608C625.674 432 640 417.674 640 400V344C640 277.727 586.275 224 520 224ZM272 112H361.25C366.164 112 370.742 114.201 373.812 118.039L458.541 224H272V112ZM140.441 122.076C142.891 115.955 148.752 112 155.375 112H224V224H100.447L140.441 122.076ZM160 464C133.49 464 112 442.51 112 416S133.49 368 160 368S208 389.49 208 416S186.51 464 160 464ZM480 464C453.49 464 432 442.51 432 416S453.49 368 480 368S528 389.49 528 416S506.51 464 480 464ZM592 384H570.121C556.896 346.799 521.738 320 480 320S403.104 346.799 389.879 384H250.121C236.896 346.799 201.738 320 160 320S83.104 346.799 69.879 384H48V288C48 279.162 55.164 272 64 272H520C559.764 272 592 304.234 592 344V384Z"/></svg>

<svg xmlns="http://www.w3.org/2000/svg" viewBox="0 0 640 512"><!--! Font Awesome Pro 6.0.0-alpha3 by @fontawesome - https://fontawesome.com License - https://fontawesome.com/license (Commercial License) --><path d="M520 224l-108.7-135.9C399.1 72.85 380.7 64 361.3 64H155.4c-26.25 0-49.75 15.88-59.5 40.25L48 226.3C20.5 233.4 0 258.3 0 288v112c0 17.67 14.33 32 32 32h33.61C73.27 477.4 112.5 512 160 512s86.73-34.64 94.39-80h131.2C393.3 477.4 432.5 512 480 512s86.73-34.64 94.39-80H608c17.67 0 32-14.33 32-32v-56C640 277.7 586.3 224 520 224zM272 112h89.25c4.914 0 9.492 2.201 12.56 6.039L458.5 224H272V112zM140.4 122.1C142.9 115.1 148.8 112 155.4 112H224V224H100.4L140.4 122.1zM160 464c-26.51 0-48-21.49-48-48s21.49-48 48-48s48 21.49 48 48S186.5 464 160 464zM480 464c-26.51 0-48-21.49-48-48s21.49-48 48-48s48 21.49 48 48S506.5 464 480 464zM592 384h-21.88C556.9 346.8 521.7 320 480 320s-76.9 26.8-90.12 64H250.1C236.9 346.8 201.7 320 160 320s-76.9 26.8-90.12 64H48V288c0-8.838 7.164-16 16-16h456c39.76 0 72 32.23 72 72V384z"/></svg>
